src/assets/img/svg/ajalugu.svg

<?xml version="1.0" encoding="UTF-8" standalone="no"?>
<svg
   width="33.69437"
   height="31.66445"
   viewBox="0 0 33.69437 31.66445"
   fill="none"
   version="1.1"
   id="svg376"
   sodipodi:docname="ajalugu.svg"
   inkscape:version="1.2.2 (b0a8486541, 2022-12-01)"
   xmlns:inkscape="http://www.inkscape.org/namespaces/inkscape"
   xmlns:sodipodi="http://sodipodi.sourceforge.net/DTD/sodipodi-0.dtd"
   xmlns="http://www.w3.org/2000/svg"
   xmlns:svg="http://www.w3.org/2000/svg">
  <defs
     id="defs380" />
  <sodipodi:namedview
     id="namedview378"
     pagecolor="#ffffff"
     bordercolor="#000000"
     borderopacity="0.25"
     inkscape:showpageshadow="2"
     inkscape:pageopacity="0.0"
     inkscape:pagecheckerboard="0"
     inkscape:deskcolor="#d1d1d1"
     showgrid="false"
     inkscape:zoom="17.458333"
     inkscape:cx="8.3054893"
     inkscape:cy="15.809069"
     inkscape:window-width="1920"
     inkscape:window-height="1008"
     inkscape:window-x="0"
     inkscape:window-y="0"
     inkscape:window-maximized="1"
     inkscape:current-layer="svg376" />
  <g
     id="g385"
     transform="translate(-6.1456314,-8.1737101)">
    <path
       d="m 39.84,25.07 c -0.08,0.58 -0.15,1.17 -0.25,1.75 -0.59,3.32 -2.11,6.15 -4.51,8.51 -2.66,2.6 -5.85,4.13 -9.55,4.44 C 20.06,40.23 15.48,38.36 11.88,34.21 10.4,32.5 9.38001,30.52 8.74001,28.34 c -0.12,-0.42 -0.06,-0.78 0.26,-1.08 0.29,-0.27 0.63,-0.34 0.99999,-0.2 0.36,0.13 0.54,0.41 0.64,0.77 0.67,2.31 1.84,4.33 3.56,6.01 2.44,2.39 5.36,3.76 8.78,4 6.96,0.5 13.15,-4.18 14.6,-11.02 1.56,-7.36 -3.2,-14.7 -10.6,-16.34 -7.41,-1.65001 -14.83,3.04 -16.52,10.45 -0.02,0.1 -0.03,0.21 -0.05,0.34 0.2,-0.07 0.35,-0.16 0.52,-0.19 0.4,-0.08 0.81,0.11 1.01,0.46 0.21,0.35 0.2,0.83 -0.09,1.13 -0.69,0.72 -1.39,1.43 -2.11999,2.11 -0.35,0.33 -0.91,0.31 -1.26,-0.02 -0.7,-0.68 -1.39,-1.37 -2.07,-2.07 -0.36,-0.38 -0.33,-0.97 0.04,-1.34 0.36,-0.36 0.94,-0.39 1.34,-0.05 0.16,0.14 0.31,0.29 0.45,0.43 0.25,-0.95 0.43,-1.9 0.75,-2.8 C 10.97,13.47 14.78,9.92999 20.44,8.59999 27.73,6.88999 34.98,10.44 38.28,17.18 c 0.85,1.73 1.34,3.56 1.49,5.48 0,0.11 0.04,0.21 0.06,0.32 v 2.1 z"
       fill="#000000"
       id="path370" />
    <path
       d="m 33.91,24.01 c 0.01,5.44 -4.41,9.88 -9.88,9.92 -5.43,0.04 -9.91,-4.43 -9.93,-9.9 -0.02,-5.45 4.45,-9.93 9.91,-9.92 5.45,0 9.89,4.44 9.9,9.9 z m -9.92,-7.93 c -4.37,0.01 -7.92,3.56 -7.92,7.93 0,4.38 3.59,7.97 7.95,7.94 4.38,-0.03 7.93,-3.6 7.91,-7.95 -0.01,-4.37 -3.59,-7.93 -7.94,-7.92 z"
       fill="#000000"
       id="path372" />
    <path
       d="m 23.01,23.03 c 0,-0.76 0,-1.47 0,-2.18 0,-0.53 0.38,-0.94 0.88,-0.98 0.51,-0.05 0.94,0.25 1.06,0.74 0.03,0.1 0.03,0.22 0.03,0.33 0,1 0,2 0,2.99 0,0.68 -0.4,1.08 -1.08,1.08 -1.59,0 -3.18,0 -4.77,0 -0.64,0 -1.07,-0.41 -1.06,-1 0,-0.57 0.44,-0.97 1.06,-0.97 1.16,0 2.32,0 3.49,0 0.12,0 0.24,0 0.4,0 z"
       fill="#000000"
       id="path374" />
  </g>
</svg>

<svg width="48" height="48" viewBox="0 0 48 48" fill="none" xmlns="http://www.w3.org/2000/svg">
<path d="M39.84 25.07C39.76 25.65 39.69 26.24 39.59 26.82C39 30.14 37.48 32.97 35.08 35.33C32.42 37.93 29.23 39.46 25.53 39.77C20.06 40.23 15.48 38.36 11.88 34.21C10.4 32.5 9.38001 30.52 8.74001 28.34C8.62001 27.92 8.68001 27.56 9.00001 27.26C9.29001 26.99 9.63001 26.92 10 27.06C10.36 27.19 10.54 27.47 10.64 27.83C11.31 30.14 12.48 32.16 14.2 33.84C16.64 36.23 19.56 37.6 22.98 37.84C29.94 38.34 36.13 33.66 37.58 26.82C39.14 19.46 34.38 12.12 26.98 10.48C19.57 8.82999 12.15 13.52 10.46 20.93C10.44 21.03 10.43 21.14 10.41 21.27C10.61 21.2 10.76 21.11 10.93 21.08C11.33 21 11.74 21.19 11.94 21.54C12.15 21.89 12.14 22.37 11.85 22.67C11.16 23.39 10.46 24.1 9.73001 24.78C9.38001 25.11 8.82001 25.09 8.47001 24.76C7.77001 24.08 7.08001 23.39 6.40001 22.69C6.04001 22.31 6.07001 21.72 6.44001 21.35C6.80001 20.99 7.38001 20.96 7.78001 21.3C7.94001 21.44 8.09001 21.59 8.23001 21.73C8.48001 20.78 8.66001 19.83 8.98001 18.93C10.97 13.47 14.78 9.92999 20.44 8.59999C27.73 6.88999 34.98 10.44 38.28 17.18C39.13 18.91 39.62 20.74 39.77 22.66C39.77 22.77 39.81 22.87 39.83 22.98V25.08L39.84 25.07Z" fill="black"/>
<path d="M33.91 24.01C33.92 29.45 29.5 33.89 24.03 33.93C18.6 33.97 14.12 29.5 14.1 24.03C14.08 18.58 18.55 14.1 24.01 14.11C29.46 14.11 33.9 18.55 33.91 24.01ZM23.99 16.08C19.62 16.09 16.07 19.64 16.07 24.01C16.07 28.39 19.66 31.98 24.02 31.95C28.4 31.92 31.95 28.35 31.93 24C31.92 19.63 28.34 16.07 23.99 16.08Z" fill="black"/>
<path d="M23.01 23.03C23.01 22.27 23.01 21.56 23.01 20.85C23.01 20.32 23.39 19.91 23.89 19.87C24.4 19.82 24.83 20.12 24.95 20.61C24.98 20.71 24.98 20.83 24.98 20.94C24.98 21.94 24.98 22.94 24.98 23.93C24.98 24.61 24.58 25.01 23.9 25.01C22.31 25.01 20.72 25.01 19.13 25.01C18.49 25.01 18.06 24.6 18.07 24.01C18.07 23.44 18.51 23.04 19.13 23.04C20.29 23.04 21.45 23.04 22.62 23.04C22.74 23.04 22.86 23.04 23.02 23.04L23.01 23.03Z" fill="black"/>
</svg>
